!!!OTL: CUCA 1
!!!ARE: America, Central America, Mexico
!!!YOR: Schaffrath: Materialien (einschlieál. ..zig Strophen
!!!SCT: T0008
!!!YEM: Copyright 1995, estate of Helmut Schaffrath.
**kern
*ICvox
*Ivox
*M3/4
*k[b-]
*F:
{8c
8c
8c
=1
4f
8a
8c
8c
8c
=2
4f
2a}
=3
{8f
8f
8e
8e
8d
8d
=4
4.c}
{8c
8c
8c
=5
4e
8g
8c
8c
8c
=6
4e
2g}
=7
{8cc
8dd
8cc
8b-
8a
8g
=8
2f
4r}
=9
{8c
8c
8f
8f
8a
8a
=10
4cc
2a}
=11
{8cc
8dd
8cc
8b-
8a
8cc
=12
4b-
2g}
=13
{8c
8c
8e
8e
8g
8g
=14
4b-
2g}
=15
{8cc
8dd
8cc
8b-
8a
8g
=16
4a
8f}
==
!!!AGN: Corrido, gesungene Zeitung
!! erste Fassung aus der Mex. Revolution. Die Zeilen 1 und 2 (REFRAIN)
!!    k”nnen wiederholt werden. - Text = beliebige Strophe.
!!!ONB: ESAC (Essen Associative Code) Database: TEST
!!!AMT: simple triple
!!!AIN: vox
!!!EED: Helmut Schaffrath
!!!EEV: 1.0
*-
